img/icons/_Footer_mail_icon.svg

<svg xmlns="http://www.w3.org/2000/svg" width="13" height="11" viewBox="0 0 13 11"><path d="M12.359 9.425c-.047.047-.295.242-.359.242H1.333c-.064 0-.213-.195-.26-.242C1.026 9.378 1 9.398 1 9.333V3.667c.159.178.332.218.515.367 1.33 1.022 2.386 1.86 3.17 2.515.253.214.459.38.617.499.159.119.374.239.644.361.27.121.524.182.763.182h.014c.238 0 .493-.061.763-.182.27-.122.485-.242.644-.361.158-.119.364-.285.617-.499.784-.655 1.84-1.493 3.169-2.515.184-.149.259-.189.417-.367v5.666c0 .065.073.045.026.092zm-.275-7.009c-.231.36-.48.646-.748.859-.957.754-1.952 1.541-2.983 2.359l-.261.219c-.144.122-.258.215-.342.28a7.567 7.567 0 0 1-.331.234 1.92 1.92 0 0 1-.376.204.87.87 0 0 1-.32.067h-.007-.007a.87.87 0 0 1-.32-.067 1.892 1.892 0 0 1-.376-.204 7 7 0 0 1-.331-.234 8.68 8.68 0 0 1-.342-.28l-.261-.219c-1.032-.818-2.026-1.605-2.983-2.359-.729-.575-1.094-1.279-1.094-2.113a.23.23 0 0 1 .071-.167c.047-.047.196.005.26.005h11c.04 0-.067-.07-.037-.057.03.012.052.031.067.056l.041.067c.012.019.02.05.022.093.003.042.004.074.004.096v.183c0 .292-.115.618-.346.978zm.948-2.095C12.799.088 12.661 0 12.333 0h-11c-.327 0-.7.088-.934.321C.166.555 0 1.006 0 1.333v8c0 .328.166.532.399.765.234.233.607.569.934.569h11c.328 0 .466-.336.699-.569.234-.233.301-.437.301-.765v-8c0-.327-.067-.778-.301-1.012z" fill="#DA0909"/></svg>

<svg version="1.1" xmlns="http://www.w3.org/2000/svg" xmlns:xlink="http://www.w3.org/1999/xlink" width="13" height="11" viewBox="0 0 13 11"><path id="-Footer_mail_ico" d="M12.359,9.425 C12.312,9.472 12.064,9.667 12.000,9.667 C12.000,9.667 1.333,9.667 1.333,9.667 C1.269,9.667 1.120,9.472 1.073,9.425 C1.026,9.378 1.000,9.398 1.000,9.333 C1.000,9.333 1.000,3.667 1.000,3.667 C1.159,3.845 1.332,3.885 1.515,4.034 C2.845,5.056 3.901,5.894 4.685,6.549 C4.938,6.763 5.144,6.929 5.302,7.048 C5.461,7.167 5.676,7.287 5.946,7.409 C6.216,7.530 6.470,7.591 6.709,7.591 C6.709,7.591 6.716,7.591 6.716,7.591 C6.716,7.591 6.723,7.591 6.723,7.591 C6.961,7.591 7.216,7.530 7.486,7.409 C7.756,7.287 7.971,7.167 8.130,7.048 C8.288,6.929 8.494,6.763 8.747,6.549 C9.531,5.894 10.587,5.056 11.916,4.034 C12.100,3.885 12.175,3.845 12.333,3.667 C12.333,3.667 12.333,9.333 12.333,9.333 C12.333,9.398 12.406,9.378 12.359,9.425 zM12.084,2.416 C11.853,2.776 11.604,3.062 11.336,3.275 C10.379,4.029 9.384,4.816 8.353,5.634 C8.323,5.659 8.236,5.732 8.092,5.853 C7.948,5.975 7.834,6.068 7.750,6.133 C7.666,6.197 7.555,6.275 7.419,6.367 C7.283,6.459 7.157,6.527 7.043,6.571 C6.929,6.616 6.823,6.638 6.723,6.638 C6.723,6.638 6.716,6.638 6.716,6.638 C6.716,6.638 6.709,6.638 6.709,6.638 C6.609,6.638 6.503,6.616 6.389,6.571 C6.274,6.527 6.149,6.459 6.013,6.367 C5.876,6.275 5.766,6.197 5.682,6.133 C5.597,6.068 5.483,5.975 5.340,5.853 C5.196,5.732 5.109,5.659 5.079,5.634 C4.047,4.816 3.053,4.029 2.096,3.275 C1.367,2.700 1.002,1.996 1.002,1.162 C1.002,1.098 1.026,1.042 1.073,0.995 C1.120,0.948 1.269,1.000 1.333,1.000 C1.333,1.000 12.333,1.000 12.333,1.000 C12.373,1.000 12.266,0.930 12.296,0.943 C12.326,0.955 12.348,0.974 12.363,0.999 C12.378,1.023 12.391,1.046 12.404,1.066 C12.416,1.085 12.424,1.116 12.426,1.159 C12.429,1.201 12.430,1.233 12.430,1.255 C12.430,1.278 12.430,1.311 12.430,1.356 C12.430,1.400 12.430,1.428 12.430,1.438 C12.430,1.730 12.315,2.056 12.084,2.416 zM13.032,0.321 C12.799,0.088 12.661,0.000 12.333,0.000 C12.333,0.000 1.333,0.000 1.333,0.000 C1.006,0.000 0.633,0.088 0.399,0.321 C0.166,0.555 0.000,1.006 0.000,1.333 C0.000,1.333 0.000,9.333 0.000,9.333 C0.000,9.661 0.166,9.865 0.399,10.098 C0.633,10.331 1.006,10.667 1.333,10.667 C1.333,10.667 12.333,10.667 12.333,10.667 C12.661,10.667 12.799,10.331 13.032,10.098 C13.266,9.865 13.333,9.661 13.333,9.333 C13.333,9.333 13.333,1.333 13.333,1.333 C13.333,1.006 13.266,0.555 13.032,0.321 z" fill="#DA0909" /></svg>
